icon-themes/sifr_svg/cmd/lc_pie_unfilled.svg

<svg viewBox="0 0 24 24" xmlns="http://www.w3.org/2000/svg"><path d="m12 4c-5.5228475 0-10 3.581722-10 8s4.4771525 8 10 8c5.522847 0 10-3.581722 10-8v-1h-9v-7zm-1 2.0546875v6.9453125h8.878906c-.650045 2.884299-3.978625 4.996636-7.878906 5-4.418278 0-8-2.686292-8-6 .005121-3.0208094 3.0038411-5.5677135 7-5.9453125z" fill="#555753"/></svg>

<svg xmlns="http://www.w3.org/2000/svg" viewBox="0 0 24 24">
  <path
     style="fill:#555753"
     d="M 12,4 C 6.4771525,4 2,7.581722 2,12 c 0,4.418278 4.4771525,8 10,8 5.522847,0 10,-3.581722 10,-8 V 11 H 13 V 4 Z M 11,6.0546875 V 13 h 8.878906 C 19.228861,15.884299 15.900281,17.996636 12,18 7.581722,18 4,15.313708 4,12 4.005121,8.9791906 7.0038411,6.4322865 11,6.0546875 Z"
     />
</svg>
